!! 00000] TT[WS
!!!OTL: Song zhangfu
!!!ARE: Asia, China, Shanxi Hequ
!! Ethnic Group: Han
!! WI, 142
!!!SCT: J0172
!!!YEM: Copyright 1995, estate of Helmut Schaffrath.
**kern
*ICvox
*Ivox
!! Mixed meters:  2/4; 3/4
*M3/4
*k[f#c#g#d#]
*E:
{16ee
16cc#
16b
16a
4f#
=1
16ee
16cc#
16b
16a
4f#
=2
8b
16b
16ee
16a
16f#
16a
16cc#
=3
2b
=4
8a
16a
16b
16ee
16ff#
16ee
16cc#
=5
4.b
8a}
=6
{8f#
8f#
16b
16cc#
16b
16a
=7
8.f#
16a
16f#
16a
16f#
16e
=8
4f#
8dn
8e
=9
2f#}
=10
{4b
16c#
16e
16c#
16B
=11
8.a
16b
16cc#
16a
16f#
16e
=12
16c#
16e
16f#
16g#
16e
8e
16c#
=13
2B}
==
!!!AGN: Xiaodiao. Qingge
!!!ONB: ESAC (Essen Associative Code) Database: CHINA
!!!AMT: irregular
!!!AIN: vox
!!!EED: Helmut Schaffrath
!!!EEV: 1.0
*-
